local/share/icons/dracula-icons-main/scalable/apps/dingtalk.svg

<?xml version="1.0" encoding="UTF-8"?>
<svg xmlns="http://www.w3.org/2000/svg" xmlns:xlink="http://www.w3.org/1999/xlink" width="64" height="64" viewBox="0 0 64 64">
<path fill-rule="nonzero" fill="rgb(9.019608%, 56.862745%, 96.078431%)" fill-opacity="1" d="M 58.183594 25.136719 C 58.117188 24.886719 58.046875 24.621094 57.972656 24.359375 C 57.832031 23.859375 57.667969 23.351562 57.488281 22.851562 C 57.121094 21.808594 56.679688 20.789062 56.164062 19.78125 C 55.949219 19.359375 55.710938 18.925781 55.460938 18.5 C 54.292969 16.515625 52.839844 14.652344 51.09375 12.910156 C 45.824219 7.636719 39.457031 5 32 5 C 24.542969 5 18.179688 7.636719 12.910156 12.910156 C 7.636719 18.179688 5 24.542969 5 32 C 5 39.457031 7.636719 45.824219 12.910156 51.09375 C 16.800781 54.988281 21.289062 57.441406 26.34375 58.453125 C 28.171875 58.820312 30.050781 59 32 59 C 39.457031 59 45.824219 56.367188 51.09375 51.09375 C 53.875 48.316406 55.921875 45.230469 57.234375 41.839844 C 58.207031 39.324219 58.78125 36.644531 58.949219 33.789062 C 58.980469 33.203125 59 32.605469 59 32 C 59 29.613281 58.730469 27.332031 58.179688 25.136719 Z M 58.183594 25.136719 "/>
<path fill-rule="nonzero" fill="rgb(100%, 100%, 100%)" fill-opacity="1" d="M 16.84375 14.609375 C 16.84375 17.355469 17.21875 21.253906 19.191406 23.382812 C 20.253906 24.523438 22 24.832031 23.402344 25.335938 C 26.46875 26.441406 29.863281 28.121094 33.128906 28.40625 L 28.832031 27.773438 L 19.105469 25.917969 C 19.125 26.898438 19.324219 27.722656 19.695312 28.632812 C 22.125 34.605469 27.996094 33.382812 33.355469 33.382812 C 31.335938 33.996094 29.109375 34.070312 27.023438 34.351562 C 26.324219 34.445312 24.984375 34.46875 24.550781 35.125 C 23.816406 36.226562 25.890625 37.746094 26.570312 38.296875 C 29.539062 40.710938 32.503906 40.25 35.84375 38.808594 L 34.710938 44.464844 L 38.332031 44.464844 L 36.523438 52.609375 L 40.765625 47.179688 L 45.570312 40.621094 L 40.820312 40.621094 C 42.378906 37.691406 44.292969 34.960938 45.84375 32.023438 C 46.523438 30.738281 47.46875 29.246094 47.054688 27.726562 C 46.40625 25.359375 42.179688 24.316406 40.140625 23.617188 C 34.539062 21.695312 29.117188 19.445312 23.628906 17.242188 C 21.484375 16.382812 19.175781 14.730469 16.84375 14.609375 Z M 16.84375 14.609375 "/>
</svg>

<svg id="App-Store" width="64" height="64" enable-background="new 0 0 1024 1024" image-rendering="optimizeSpeed" version="1.1" viewBox="0 0 64 64" xmlns="http://www.w3.org/2000/svg">
 <path d="m58.182 25.136c-0.06292-0.24883-0.13442-0.51484-0.20879-0.77797-0.14301-0.50054-0.30604-1.0067-0.48337-1.5073-0.36896-1.044-0.80943-2.0622-1.3243-3.069-0.21738-0.42331-0.45477-0.8552-0.7036-1.2813h-0.0014q-1.7505-2.9751-4.3661-5.5916c-5.2713-5.2713-11.638-7.9084-19.094-7.9084s-13.82 2.6371-19.092 7.9084c-5.2713 5.2713-7.9084 11.635-7.9084 19.092 0 7.4565 2.6371 13.823 7.9084 19.094 3.8927 3.8927 8.3804 6.3467 13.437 7.3592 1.8276 0.3661 3.704 0.54629 5.6546 0.54629 7.4565 0 13.823-2.6342 19.094-7.9055 2.7801-2.7801 4.828-5.8633 6.1408-9.2556 0.97245-2.5141 1.5445-5.1941 1.7132-8.0514 0.03433-0.58348 0.05148-1.1813 0.05148-1.7876 0-2.3882-0.26886-4.6679-0.81801-6.8644z" fill="#1791f5" stroke-width=".89649"/>
 <path id="Shape" d="m16.843 14.608c0 2.7472 0.3753 6.6457 2.3502 8.7731 1.0594 1.1411 2.8065 1.4511 4.2093 1.9563 3.0653 1.104 6.4589 2.783 9.7262 3.0683l-4.2976-0.63085-9.7262-1.8573c0.02087 0.98008 0.21911 1.805 0.5892 2.7143 2.4318 5.9746 8.3014 4.75 13.661 4.75-2.0197 0.61366-4.2454 0.68717-6.3333 0.96855-0.69599 0.09386-2.0368 0.11808-2.4719 0.7738-0.7324 1.104 1.3393 2.622 2.0197 3.1746 2.9676 2.4112 5.9325 1.9495 9.2736 0.51164l-1.131 5.6548h3.619l-1.8095 8.1429 4.2424-5.4286 4.8052-6.5595h-4.75c1.5582-2.928 3.4754-5.6588 5.0257-8.5952 0.67925-1.2863 1.625-2.7772 1.2094-4.2974-0.64736-2.3693-4.8753-3.4109-6.9137-4.1099-5.6007-1.9206-11.023-4.1712-16.512-6.3736-2.1424-0.85959-4.4531-2.5145-6.7857-2.6358z" fill="#ffffff" stroke-width="1.3451"/>
</svg>
